X: 18761
T: If Ever I Marry, I Am A Son Of A Whore
R: jig
M: 6/8
K: Aminor
|:E|A>BA AGA|cde f2g|fed cAG|G>AG GEG|
A>BA AGA|cde fag|fed cAG|A3 A2:|
|:e|a>ba g>ag|f>gf e2d|c>de ged|cAG G3|
EAA AGA|cde fag|fed cAG|A3 A2:|
|:B|cEE GEE|cEE G2G|AEE cEE|dcd e3|
EAA AGA|cde fag|fed cAG|A3 A2:|
|:e|a2a g2g|fgf e2d|cde ged|cAG G3|
EAA AGA|cde fag|fed cAG|A3 A2:|

